annanekrasova/img/icons/big-star.svg

<svg width="341" height="341" fill="none" xmlns="http://www.w3.org/2000/svg"><path d="M161.133 54.6l12.748 72.605 49.978-54.187-28.53 67.972 71.341-18.566-60.749 41.757 70.052 22.951-73.681 2.286 46.524 57.181-63.22-37.913 8.224 73.256-32.687-66.073-32.687 66.073 8.224-73.256-63.22 37.913 46.524-57.181-73.681-2.286 70.052-22.951-60.749-41.757 71.341 18.566-28.53-67.972 49.978 54.187L161.133 54.6z" fill="#B12B00"/><path d="M188.414 107.093l.174.996.686-.743 71.299-77.305-40.701 96.969-.391.932.978-.254 101.775-26.486-86.665 59.571-.833.573.96.315 99.938 32.742-105.114 3.26-1.01.031.638.784 66.371 81.575-90.19-54.086-.867-.52.113 1.004 11.732 104.508-46.631-94.26-.449-.906-.448.906-46.631 94.26 11.732-104.508.113-1.004-.867.52-90.19 54.086 66.371-81.575.638-.784-1.01-.031-105.114-3.26 99.937-32.742.961-.315-.833-.573-86.665-59.571 101.775 26.486.978.254-.391-.932-40.7-96.969 71.298 77.305.685.743.175-.996 18.186-103.58 18.187 103.58z" stroke="#3E3E3E"/></svg>

<svg width="341" height="341" viewBox="0 0 341 341" fill="none" xmlns="http://www.w3.org/2000/svg">
<path d="M161.133 54.5996L173.881 127.205L223.859 73.0176L195.329 140.99L266.67 122.424L205.921 164.181L275.973 187.132L202.292 189.418L248.816 246.599L185.596 208.686L193.82 281.942L161.133 215.869L128.446 281.942L136.67 208.686L73.4501 246.599L119.974 189.418L46.2927 187.132L116.345 164.181L55.5964 122.424L126.937 140.99L98.4072 73.0176L148.385 127.205L161.133 54.5996Z" fill="#B12B00"/>
<path d="M188.414 107.093L188.588 108.089L189.274 107.346L260.573 30.0411L219.872 127.01L219.481 127.942L220.459 127.688L322.234 101.202L235.569 160.773L234.736 161.346L235.696 161.661L335.634 194.403L230.52 197.663L229.51 197.694L230.148 198.478L296.519 280.053L206.329 225.967L205.462 225.447L205.575 226.451L217.307 330.959L170.676 236.699L170.227 235.793L169.779 236.699L123.148 330.959L134.88 226.451L134.993 225.447L134.126 225.967L43.9359 280.053L110.307 198.478L110.945 197.694L109.935 197.663L4.82072 194.403L104.758 161.661L105.719 161.346L104.886 160.773L18.221 101.202L119.996 127.688L120.974 127.942L120.583 127.01L79.8822 30.0411L151.181 107.346L151.866 108.089L152.041 107.093L170.227 3.51336L188.414 107.093Z" stroke="#3E3E3E"/>
</svg>
